X: 8475
T: Cranky Pants
R: reel
M: 4/4
K: Eminor
"Em"DEED E2DE-|"Em"EDEG "D"FEED-|"Am7"DEED E2DE|"Am7"cEGB "Bm7"AFdF|
"Em"eEED E2DE-|"Em"EDEG "D"FE~E2|"Am7"dBGe AdA"Bm7"g-|gfed "D(addG)"B/^c/d AF:|
|:"Em"eBBA B"D"gf"Em"e-|edBA "Bm7"GBAF|"Am7"DEED E2GA|BDGB "Bm7"AFdF|
"Em"eBBg B"D"fB"Cmaj7"e-|eBBA BG"/B"EG|"Am7"dBGF A"/B"dA"Cmaj7"e-|edBA "D(add G)"GBAF:|

